X:863
T:Xiraldilla (CT 357)
R:Xiraldilla
C:Tradicional
S:Msica Tradicional Asturiana, (C) Tello & Tito. Asturies, 2001.
S:http://pagina.de/MusTradAst <telloytito@asturies.org>
N:Xiraldilla, transcrita en Uviu.
A:Asturies
O:Uviu
Z:Cancioneru de Torner 357
M:2/4
L:1/8
Q:1/4=160
K:Gm
|B2 d2|d2 cB|A2 G2|B2 d2|d2 (cB)|c4|
B2 d2|d2 cB|A2 G2|B2 d2|c2 A2|G4|
|F2 FE|D4|G2 ^FG|B2 A2|G4|
=F2 FE|D4|G2 ^FG|B2 c2|d2 cB|c2 A2|G4||
W:Aquel pobre marino
W:dijo al piloto:
W:el capitn del barco
W:se vuelve loco.
W:Sevilla, no,
W:Sevilla, no,
W:Manuel,
W:Sevilla, no;
W:Sevilla no ha de ser,
W:que no quiero yo.
W:
